icon-sprites/icons-svg - Copy/i36.svg

<?xml version="1.0" encoding="UTF-8" standalone="no"?>
<svg xmlns:dc="http://purl.org/dc/elements/1.1/" xmlns:cc="http://creativecommons.org/ns#" xmlns:rdf="http://www.w3.org/1999/02/22-rdf-syntax-ns#" xmlns:svg="http://www.w3.org/2000/svg" xmlns="http://www.w3.org/2000/svg" xmlns:sodipodi="http://sodipodi.sourceforge.net/DTD/sodipodi-0.dtd" xmlns:inkscape="http://www.inkscape.org/namespaces/inkscape" version="1.1" viewBox="0 0 75 74.127459" id="svg35" sodipodi:docname="i36.svg" width="75" height="74.127457" inkscape:version="0.92.2 (5c3e80d, 2017-08-06)">
  <metadata id="metadata41">
    <rdf:RDF>
      <cc:Work rdf:about="">
        <dc:format>image/svg+xml</dc:format>
        <dc:type rdf:resource="http://purl.org/dc/dcmitype/StillImage" />
        <dc:title></dc:title>
      </cc:Work>
    </rdf:RDF>
  </metadata>
  <defs id="defs39" />
  <sodipodi:namedview pagecolor="#ffffff" bordercolor="#666666" borderopacity="1" objecttolerance="10" gridtolerance="10" guidetolerance="10" inkscape:pageopacity="0" inkscape:pageshadow="2" inkscape:window-width="2293" inkscape:window-height="894" id="namedview37" showgrid="false" fit-margin-top="0" fit-margin-left="0" fit-margin-right="0" fit-margin-bottom="0" inkscape:zoom="2.3807123" inkscape:cx="-22.069508" inkscape:cy="18.518521" inkscape:window-x="0" inkscape:window-y="22" inkscape:window-maximized="0" inkscape:current-layer="svg35" />
  <path inkscape:connector-curvature="0" id="path2" style="display:inline;fill:#e8e7e6;stroke-width:0.98815531" d="M 60.823924,72.842857 H 55.623262 V 11.735333 H 19.219621 V 72.842857 H 14.018959 V 5.233271 C 14.018959,3.087985 15.773923,1.333022 17.919208,1.333022 H 56.921699 C 59.066984,1.333022 60.821948,3.087985 60.821948,5.233271 V 72.842857" />
  <path id="path32" style="fill:#100f0d;stroke-width:0.98815531" d="M 1.5346052,74.127459 H 73.699588 C 74.417977,74.127459 75,73.545633 75,72.827047 75,72.109349 74.418174,71.526634 73.699588,71.526634 H 1.5346052 C 0.81621629,71.526634 0.23419281,72.109152 0.23419281,72.827047 0.23419281,73.545436 0.81601866,74.127459 1.5346052,74.127459 M 45.013439,7.822238 H 47.614264 C 48.332653,7.822238 48.914676,7.240412 48.914676,6.521825 48.914676,5.804128 48.33285,5.221413 47.614264,5.221413 H 45.013439 C 44.29505,5.221413 43.713027,5.80393 43.713027,6.521825 43.713027,7.240214 44.294853,7.822238 45.013439,7.822238 M 27.226643,7.822238 H 29.827468 C 30.545758,7.822238 31.12788,7.240412 31.12788,6.521825 31.12788,5.804128 30.546054,5.221413 29.827468,5.221413 H 27.226643 C 26.508254,5.221413 25.926231,5.80393 25.926231,6.521825 25.926231,7.240214 26.508057,7.822238 27.226643,7.822238 M 36.120041,7.822238 H 38.720866 C 39.439255,7.822238 40.021278,7.240412 40.021278,6.521825 40.021278,5.804128 39.439452,5.221413 38.720866,5.221413 H 36.120041 C 35.401652,5.221413 34.819629,5.80393 34.819629,6.521825 34.819629,7.240214 35.401455,7.822238 36.120041,7.822238 M 66.752856,31.636781 72.603723,28.386738 C 73.231696,28.037622 73.457984,27.245418 73.108868,26.618928 72.760346,25.990955 71.968537,25.764668 71.341058,26.113783 L 65.490191,29.363826 C 64.862119,29.712249 64.63593,30.504157 64.985046,31.131636 65.333469,31.759609 66.125377,31.985896 66.752856,31.636781 M 65.7647,44.680431 71.615568,47.931462 C 72.242948,48.279885 73.034559,48.053696 73.383378,47.425724 73.732493,46.798344 73.506206,46.006732 72.878233,45.657914 L 67.027366,42.406883 C 66.399986,42.057768 65.608375,42.284055 65.259556,42.912028 64.91044,43.539408 65.136629,44.331019 65.7647,44.679838 M 65.7647,38.356237 H 72.91598 C 73.634369,38.356237 74.216393,37.774411 74.216393,37.055824 74.216393,36.338127 73.634567,35.755412 72.91598,35.755412 H 65.7647 C 65.04641,35.755412 64.464288,36.337831 64.464288,37.055824 64.464288,37.774213 65.046114,38.356237 65.7647,38.356237 M 9.4398477,29.364023 3.5889801,26.113981 C 2.9616991,25.764865 2.1699891,25.991153 1.8211702,26.619125 1.472055,27.246407 1.6983425,28.038116 2.3263152,28.386935 L 8.1771825,31.636978 C 8.8045625,31.985402 9.5961736,31.759213 9.9449924,31.13124 10.294108,30.503861 10.067919,29.712249 9.4399464,29.363431 M 8.4516924,42.407673 2.6008248,45.658704 C 1.9728521,46.007128 1.7465645,46.799036 2.0956798,47.426514 2.4442022,48.054487 3.236011,48.280775 3.8634896,47.932253 L 9.7143575,44.68221 C 10.34233,44.333094 10.568518,43.54089 10.219404,42.9144 9.8709802,42.286427 9.0790723,42.06014 8.4515937,42.409254 M 8.4516924,35.787033 H 1.3004124 C 0.58202348,35.787033 0,36.369452 0,37.087445 0,37.805834 0.58182585,38.387858 1.3004124,38.387858 H 8.4516924 C 9.1700813,38.387858 9.7521048,37.806032 9.7521048,37.087445 9.7521048,36.369748 9.1702786,35.787033 8.4516924,35.787033 M 36.120041,58.514605 V 69.888273 C 36.129923,72.221307 38.013347,74.108684 40.345393,74.113625 42.678428,74.108684 44.565805,72.220319 44.570745,69.888273 V 52.664726 C 44.570745,51.947028 43.988919,51.364313 43.270333,51.364313 42.551747,51.364313 41.969921,51.946732 41.969921,52.664726 V 69.888273 C 41.969921,70.334228 41.78978,70.734726 41.491456,71.035521 41.191057,71.334537 40.790656,71.513986 40.344208,71.513986 39.898352,71.513986 39.497853,71.333944 39.197948,71.035521 38.899525,70.73522 38.719482,70.334722 38.719482,69.888273 V 58.514605 C 38.719482,57.796908 38.137657,57.214193 37.41907,57.214193 36.70078,57.214193 36.118658,57.796612 36.118658,58.514605 M 36.120041,58.514605 V 69.888273 C 36.120041,70.334228 35.9399,70.734726 35.641477,71.035521 35.341177,71.334537 34.940678,71.513986 34.495217,71.513986 34.049757,71.513986 33.648763,71.334537 33.348957,71.035521 33.050534,70.73522 32.870492,70.334722 32.870492,69.888273 V 52.664726 C 32.870492,51.947028 32.288666,51.364313 31.57008,51.364313 30.851494,51.364313 30.269668,51.946732 30.269668,52.664726 V 69.888273 C 30.279549,72.221307 32.162973,74.109672 34.49502,74.113625 36.827066,74.108684 38.715431,72.220319 38.720372,69.888273 V 58.514605 C 38.720372,57.796908 38.138546,57.214193 37.419959,57.214193 36.701669,57.214193 36.119547,57.796612 36.119547,58.514605 M 31.179265,42.901751 V 52.328753 C 31.179265,52.867001 30.742401,53.303271 30.204153,53.303865 29.665806,53.30338 29.229634,52.867001 29.228943,52.328753 V 39.65072 C 29.228943,39.52394 29.254635,39.404274 29.320841,39.256743 29.435269,39.001898 29.711557,38.659304 30.193283,38.314734 30.91098,37.794668 32.055956,37.29397 33.463089,36.950092 34.872198,36.602261 36.542181,36.400085 38.329754,36.400085 41.052122,36.395144 43.509664,36.877265 45.167788,37.599705 45.997345,37.955935 46.6184,38.374024 46.976113,38.749918 47.156846,38.937173 47.271967,39.109408 47.338964,39.256348 47.406158,39.403879 47.430862,39.523545 47.430862,39.650325 V 52.328357 C 47.430862,52.866606 46.993999,53.302877 46.455652,53.303469 46.113058,53.303469 45.778271,53.44191 45.53647,53.684403 45.293878,53.926205 45.155437,54.261091 45.155437,54.603585 H 46.455849 V 53.303173 C 45.917601,53.302688 45.48133,52.866309 45.480738,52.328061 V 42.90106 C 45.480738,42.183362 44.898912,41.600647 44.180325,41.600647 43.461738,41.600647 42.879913,42.183065 42.879913,42.90106 V 52.328061 C 42.879913,54.303384 44.480725,55.903207 46.455059,55.903207 46.797652,55.903207 47.132439,55.764766 47.374339,55.522273 47.616833,55.280471 47.755273,54.945585 47.755273,54.602992 H 46.454861 V 55.903405 C 48.430183,55.90292 50.030007,54.303581 50.030007,52.328259 V 39.650226 C 50.030501,39.131445 49.909748,38.623533 49.699765,38.168981 49.329207,37.369366 48.71744,36.733192 47.98334,36.20354 46.876606,35.41104 45.457615,34.831981 43.817277,34.424861 42.175951,34.020508 40.311302,33.800149 38.328074,33.799457 35.306295,33.804398 32.562188,34.305887 30.456429,35.212519 29.404044,35.670233 28.501858,36.228343 27.806196,36.94772 27.460342,37.308495 27.166464,37.71354 26.95658,38.16908 26.746498,38.623533 26.625648,39.131247 26.62624,39.650325 V 52.328357 C 26.62624,54.30368 28.227052,55.903503 30.201386,55.903503 32.176709,55.903019 33.776532,54.30368 33.776532,52.328357 V 42.901356 C 33.776532,42.183659 33.194706,41.600943 32.47612,41.600943 31.757533,41.600943 31.175707,42.183362 31.175707,42.901356 M 38.018287,32.463867 C 41.967944,32.463867 45.168579,29.263232 45.169567,25.312587 45.169567,21.36293 41.967944,18.162295 38.018287,18.161307 34.068631,18.161307 30.867996,21.361942 30.867007,25.312587 30.867007,29.262243 34.068631,32.462878 38.018287,32.463867 Z M 34.800854,22.094165 C 35.628533,21.269154 36.758389,20.762131 38.019276,20.761143 39.280162,20.761143 40.409623,21.268858 41.237697,22.094165 42.0634,22.922436 42.569731,24.0517 42.570719,25.312587 42.570719,26.573473 42.063697,27.702934 41.237697,28.531008 40.410117,29.356711 39.280162,29.863042 38.019276,29.86403 36.758389,29.86403 35.628928,29.356909 34.800854,28.531008 33.97525,27.703428 33.46882,26.574461 33.467832,25.312587 33.467832,24.0517 33.974855,22.922239 34.800854,22.094165 Z M 18.856968,0 C 15.988353,0.004941 13.661247,2.332047 13.656306,5.200662 V 72.810248 C 13.656306,73.152841 13.794845,73.487628 14.037339,73.72943 14.279141,73.971923 14.613928,74.110364 14.956521,74.110364 H 20.157183 C 20.499776,74.110364 20.834563,73.971923 21.076365,73.72943 21.318957,73.487628 21.457397,73.152742 21.457397,72.810248 V 12.997207 H 55.26219 V 72.810248 C 55.26219,73.152841 55.400631,73.487628 55.643124,73.72943 55.884926,73.971923 56.219812,74.110364 56.562405,74.110364 H 61.763067 C 62.105759,74.110364 62.440546,73.971923 62.682347,73.72943 62.924841,73.487628 63.063281,73.152742 63.063281,72.810248 V 5.200662 C 63.0534,2.332047 60.731235,0.004941 57.86262,0 Z M 59.697624,3.365954 C 60.17352,3.843134 60.46216,4.48751 60.462852,5.200958 V 71.516061 H 57.862027 V 11.70302 C 57.862027,11.361119 57.723488,11.02564 57.480994,10.783838 57.239193,10.542036 56.904406,10.402904 56.561813,10.402904 H 20.158171 C 19.815577,10.402904 19.480791,10.542036 19.23889,10.783838 18.996396,11.02564 18.857956,11.361119 18.857956,11.70302 V 71.516061 H 16.257131 V 5.200958 C 16.257131,4.487115 16.546463,3.843233 17.02226,3.365954 17.49944,2.89075 18.142828,2.601418 18.857265,2.600825 H 57.861188 C 58.577056,2.600825 59.220345,2.89075 59.697624,3.365954 Z" inkscape:connector-curvature="0" sodipodi:nodetypes="csssssccsssssccsssssccsssssccccccccccccccccsssssccccccccccccccccssssscccccsssscscsssccscscsssscccssccsccscccccccssccccccsssssccccscccccccccscssscccccccccccccccccscsscsccscsscscccccccscsscsccscccc" />
</svg>

<svg version="1.1" viewBox="0 0 75 74.13" xmlns="http://www.w3.org/2000/svg">
 <path d="m60.82 72.84h-5.201v-61.11h-36.4v61.11h-5.201v-67.61c0-2.145 1.755-3.9 3.9-3.9h39c2.145 0 3.9 1.755 3.9 3.9v67.61" style="fill:#e8e7e6;stroke-width:.9882"/>
 <path d="m1.535 74.13h72.16c0.7184 0 1.3-0.5818 1.3-1.3 0-0.7177-0.5818-1.3-1.3-1.3h-72.16c-0.7184 0-1.3 0.5825-1.3 1.3 0 0.7184 0.5818 1.3 1.3 1.3m43.48-66.31h2.601c0.7184 0 1.3-0.5818 1.3-1.3 0-0.7177-0.5818-1.3-1.3-1.3h-2.601c-0.7184 0-1.3 0.5825-1.3 1.3 0 0.7184 0.5818 1.3 1.3 1.3m-17.79 0h2.601c0.7183 0 1.3-0.5818 1.3-1.3 0-0.7177-0.5818-1.3-1.3-1.3h-2.601c-0.7184 0-1.3 0.5825-1.3 1.3 0 0.7184 0.5818 1.3 1.3 1.3m8.893 0h2.601c0.7184 0 1.3-0.5818 1.3-1.3 0-0.7177-0.5818-1.3-1.3-1.3h-2.601c-0.7184 0-1.3 0.5825-1.3 1.3 0 0.7184 0.5818 1.3 1.3 1.3m30.63 23.81 5.851-3.25c0.628-0.3491 0.8543-1.141 0.5051-1.768-0.3485-0.628-1.14-0.8543-1.768-0.5051l-5.851 3.25c-0.6281 0.3484-0.8543 1.14-0.5051 1.768 0.3484 0.628 1.14 0.8543 1.768 0.5051m-0.9882 13.04 5.851 3.251c0.6274 0.3484 1.419 0.1222 1.768-0.5057 0.3491-0.6274 0.1228-1.419-0.5051-1.768l-5.851-3.251c-0.6274-0.3491-1.419-0.1228-1.768 0.5051-0.3491 0.6274-0.1229 1.419 0.5051 1.768m0-6.324h7.151c0.7184 0 1.3-0.5818 1.3-1.3 0-0.7177-0.5818-1.3-1.3-1.3h-7.151c-0.7183 0-1.3 0.5824-1.3 1.3 0 0.7184 0.5818 1.3 1.3 1.3m-56.32-8.992-5.851-3.25c-0.6273-0.3491-1.419-0.1228-1.768 0.5051-0.3491 0.6273-0.1228 1.419 0.5051 1.768l5.851 3.25c0.6274 0.3484 1.419 0.1222 1.768-0.5057 0.3491-0.6274 0.1229-1.419-0.505-1.768m-0.9883 13.04-5.851 3.251c-0.628 0.3484-0.8543 1.14-0.5051 1.768 0.3485 0.628 1.14 0.8543 1.768 0.5057l5.851-3.25c0.628-0.3491 0.8542-1.141 0.505-1.768-0.3484-0.628-1.14-0.8543-1.768-0.5051m9.87e-5 -6.622h-7.151c-0.7184 0-1.3 0.5824-1.3 1.3 0 0.7184 0.5818 1.3 1.3 1.3h7.151c0.7184 0 1.3-0.5818 1.3-1.3 0-0.7177-0.5818-1.3-1.3-1.3m27.67 22.73v11.37c0.009882 2.333 1.893 4.22 4.225 4.225 2.333-0.004941 4.22-1.893 4.225-4.225v-17.22c0-0.7177-0.5818-1.3-1.3-1.3s-1.3 0.5824-1.3 1.3v17.22c0 0.446-0.1801 0.8465-0.4785 1.147-0.3004 0.299-0.7008 0.4785-1.147 0.4785-0.4459 0-0.8464-0.18-1.146-0.4785-0.2984-0.3003-0.4785-0.7008-0.4785-1.147v-11.37c0-0.7177-0.5818-1.3-1.3-1.3-0.7183 0-1.3 0.5824-1.3 1.3m0.001383 0v11.37c0 0.446-0.1801 0.8465-0.4786 1.147-0.3003 0.299-0.7008 0.4785-1.146 0.4785-0.4455 0-0.8465-0.1794-1.146-0.4785-0.2984-0.3003-0.4785-0.7008-0.4785-1.147v-17.22c0-0.7177-0.5818-1.3-1.3-1.3s-1.3 0.5824-1.3 1.3v17.22c0.009881 2.333 1.893 4.221 4.225 4.225 2.332-0.004941 4.22-1.893 4.225-4.225v-11.37c0-0.7177-0.5818-1.3-1.3-1.3-0.7183 0-1.3 0.5824-1.3 1.3m-4.94-15.61v9.427c0 0.5382-0.4369 0.9745-0.9751 0.9751-0.5383-4.85e-4 -0.9745-0.4369-0.9752-0.9751v-12.68c0-0.1268 0.02569-0.2464 0.0919-0.394 0.1144-0.2548 0.3907-0.5974 0.8724-0.942 0.7177-0.5201 1.863-1.021 3.27-1.365 1.409-0.3478 3.079-0.55 4.867-0.55 2.722-0.004941 5.18 0.4772 6.838 1.2 0.8296 0.3562 1.451 0.7743 1.808 1.15 0.1807 0.1873 0.2959 0.3595 0.3629 0.5064 0.06719 0.1475 0.0919 0.2672 0.0919 0.394v12.68c0 0.5382-0.4369 0.9745-0.9752 0.9751-0.3426 0-0.6774 0.1384-0.9192 0.3809-0.2426 0.2418-0.381 0.5767-0.381 0.9192h1.3v-1.3c-0.5382-4.85e-4 -0.9745-0.4369-0.9751-0.9751v-9.427c0-0.7177-0.5818-1.3-1.3-1.3s-1.3 0.5824-1.3 1.3v9.427c0 1.975 1.601 3.575 3.575 3.575 0.3426 0 0.6774-0.1384 0.9193-0.3809 0.2425-0.2418 0.3809-0.5767 0.3809-0.9193h-1.3v1.3c1.975-4.85e-4 3.575-1.6 3.575-3.575v-12.68c4.94e-4 -0.5188-0.1203-1.027-0.3302-1.481-0.3706-0.7996-0.9823-1.436-1.716-1.965-1.107-0.7925-2.526-1.372-4.166-1.779-1.641-0.4044-3.506-0.6247-5.489-0.6254-3.022 0.004941-5.766 0.5064-7.872 1.413-1.052 0.4577-1.955 1.016-2.65 1.735-0.3459 0.3608-0.6397 0.7658-0.8496 1.221-0.2101 0.4545-0.3309 0.9622-0.3303 1.481v12.68c0 1.975 1.601 3.575 3.575 3.575 1.975-4.84e-4 3.575-1.6 3.575-3.575v-9.427c0-0.7177-0.5818-1.3-1.3-1.3-0.7186 0-1.3 0.5824-1.3 1.3m6.843-10.44c3.95 0 7.15-3.201 7.151-7.151 0-3.95-3.202-7.15-7.151-7.151-3.95 0-7.15 3.201-7.151 7.151 0 3.95 3.202 7.15 7.151 7.151zm-3.217-10.37c0.8277-0.825 1.958-1.332 3.218-1.333 1.261 0 2.39 0.5077 3.218 1.333 0.8257 0.8283 1.332 1.958 1.333 3.218 0 1.261-0.507 2.39-1.333 3.218-0.8276 0.8257-1.958 1.332-3.218 1.333-1.261 0-2.39-0.5071-3.218-1.333-0.8256-0.8276-1.332-1.957-1.333-3.218 0-1.261 0.507-2.39 1.333-3.218zm-15.94-22.09c-2.869 0.004941-5.196 2.332-5.201 5.201v67.61c0 0.3426 0.1385 0.6774 0.381 0.9192 0.2418 0.2425 0.5766 0.3809 0.9192 0.3809h5.201c0.3426 0 0.6774-0.1384 0.9192-0.3809 0.2426-0.2418 0.381-0.5767 0.381-0.9192v-59.81h33.8v59.81c0 0.3426 0.1384 0.6774 0.3809 0.9192 0.2418 0.2425 0.5767 0.3809 0.9193 0.3809h5.201c0.3427 0 0.6775-0.1384 0.9193-0.3809 0.2425-0.2418 0.3809-0.5767 0.3809-0.9192v-67.61c-0.009881-2.869-2.332-5.196-5.201-5.201zm40.84 3.366c0.4759 0.4772 0.7645 1.122 0.7652 1.835v66.32h-2.601v-59.81c0-0.3419-0.1385-0.6774-0.381-0.9192-0.2418-0.2418-0.5766-0.3809-0.9192-0.3809h-36.4c-0.3426 0-0.6774 0.1391-0.9193 0.3809-0.2425 0.2418-0.3809 0.5773-0.3809 0.9192v59.81h-2.601v-66.32c0-0.7138 0.2893-1.358 0.7651-1.835 0.4772-0.4752 1.121-0.7645 1.835-0.7651h39c0.7159 0 1.359 0.2899 1.836 0.7651z" style="fill:#100f0d;stroke-width:.9882"/>
</svg>
